X:002
T:To all good Lasses. TS.002
M:2/4
L:1/8
Q:1/2=50
S:Thomas Sands’ MS,1810,Lincolnshire
R:glee
O:England;Lincolnshire
Z:vmp.Ruairidh Greig, 2011
K:G
GA|BG cB|AG Bc|dB ed|cB dd|
dd ee|dc cc|cd/e/ dc|cB d>d|
e>e d>F|G2d>d|ee dF|G2:|
|:dd|d4-|d4-|d4-|d4|
d2ee|dB cA|G2de|cAz2|
z2de|cAz2|z2dd|dd ed|
dc cc|c(d/e/) dc|cB d>d|ee dF|
G2d>d|ee dF|G3:|]

